!!!COM: Palestrina, Giovanni Perluigi da
!!!OPR: In festis Apostolorum (II)
!!!OTL: Sanctus
**kern	**kern	**kern	**kern	**kern
*Ibass	*Itenor	*Itenor	*Icalto	*Icant
!Bassus	!Tenor 2	!Tenor 1	!Altus	!Cantus
*clefF4	*clefGv2	*clefGv2	*clefG2	*clefG2
*k[]	*k[]	*k[]	*k[]	*k[]
*D:dor	*D:dor	*D:dor	*D:dor	*D:dor
*M4/2	*M4/2	*M4/2	*M4/2	*M4/2
=1	=1	=1	=1	=1
0r	0r	0r	1A	0r
.	.	.	1d	.
=2	=2	=2	=2	=2
0r	1r	0r	1.f	1d
.	1D	.	.	1a
.	.	.	4e	.
.	.	.	4d	.
=3	=3	=3	=3	=3
0r	1A	0r	2e	1.cc
.	.	.	2f	.
.	[1c	.	[1e	.
.	.	.	.	4b
.	.	.	.	4a
=4	=4	=4	=4	=4
0r	2c]	0r	2e]	2.g
.	4B	.	4d	.
.	4A	.	4c	4f
.	2G	.	2e	2g
.	2F	.	2f	2a
=5	=5	=5	=5	=5
1r	1G	0r	2e	2g
.	.	.	1d	2f
1AA	1A	.	.	1e
.	.	.	2c#	.
=6	=6	=6	=6	=6
1D	0A	1r	0d	4d
.	.	.	.	4e
.	.	.	.	4f
.	.	.	.	4g
[1F	.	1D	.	[1a
=7	=7	=7	=7	=7
2F]	1F	1A	2r	2a]
4E	.	.	2.c	4g
4D	.	.	.	4f
2.C	1G	[1c	.	[1e
.	.	.	4d	.
.	.	.	[2e	.
4BB	.	.	.	.
=8	=8	=8	=8	=8
4C	2.G	2c]	4e]	1e]
4D	.	.	4f	.
1E	.	4B	2g	.
.	4A	4A	.	.
.	4B	2G	2e	2r
.	4c	.	.	.
4D	[2d	2F	2f	2a
4C	.	.	.	.
=9	=9	=9	=9	=9
1BB	2d]	1G	1d	4b
.	.	.	.	4cc
.	2D	.	.	4dd
.	.	.	.	4b
1AA	2E	1A	2r	2.cc
.	2C	.	2e	.
.	.	.	.	4b
=10	=10	=10	=10	=10
2.D	4D	1.A	2f	4a
.	4E	.	.	4g
.	4F	.	2d	1f
4E	4G	.	.	.
2F	4A	.	2c	.
.	4B	.	.	.
2C	2c	2G	2e	[2e
=11	=11	=11	=11	=11
1D	0A	1F	2f	4e]
.	.	.	.	4d
.	.	.	2d	1d
1AA	.	1E	2e	.
.	.	.	2A	2c#
=12	=12	=12	=12	=12
[0D	[0F#	[0D	[0A	[0d
=13	=13	=13	=13	=13
0D]	0F#]	0D]	0A]	0d]
=14	=14	=14	=14	=14
1D	0r	0r	0r	0r
1E	.	.	.	.
=15	=15	=15	=15	=15
1D	1A	0r	0r	0r
[1G	1B	.	.	.
=16	=16	=16	=16	=16
2G]	1.A	0r	1r	0r
4F	.	.	.	.
4E	.	.	.	.
2F	.	.	1d	.
2G	[2d	.	.	.
=17	=17	=17	=17	=17
4C	2d]	0r	1e	0r
4D	.	.	.	.
4E	1c	.	.	.
4F	.	.	.	.
2.G	.	.	1d	.
.	2B	.	.	.
4F	.	.	.	.
=18	=18	=18	=18	=18
4E	1c	0r	1g	0r
4D	.	.	.	.
2C	.	.	.	.
2D	1A	.	2f	.
2C	.	.	2e	.
=19	=19	=19	=19	=19
1D	2A	0r	2.f	1a
.	2d	.	.	.
.	.	.	4d	.
1G	4B	.	2d	1b
.	4A	.	.	.
.	4B	.	[2g	.
.	4c	.	.	.
=20	=20	=20	=20	=20
1D	1d	1A	2g]	1a
.	.	.	2f	.
1GG	2d	1B	1g	1dd
.	2G	.	.	.
=21	=21	=21	=21	=21
1AA	4E	1A	1c	1cc
.	4D	.	.	.
.	4E	.	.	.
.	4F	.	.	.
1r	1G	1d	2r	1b
.	.	.	2g	.
=22	=22	=22	=22	=22
2r	1A	1c	2e	2cc
1A	.	.	2f	2a
.	1E	1B	[1e	1b
2G#	.	.	.	.
=23	=23	=23	=23	=23
1A	2r	1c	1e]	2a
.	2.e	.	.	2.cc
1F	.	1A	1r	.
.	8d	.	.	4b
.	8c	.	.	.
.	2d	.	.	[2a
=24	=24	=24	=24	=24
0E	1e	0B	2r	2a]
.	.	.	2.e	4g#
.	.	.	.	4f#
.	1E	.	.	1g#
.	.	.	4d	.
.	.	.	2B	.
=25	=25	=25	=25	=25
1AA	2r	2.A	2.c#	[0a
.	1A	.	.	.
.	.	4B	4d	.
2r	.	2c#	2e	.
[2D	2A	[2d	[2f	.
=26	=26	=26	=26	=26
2D]	1A	4d]	2f]	1a_
.	.	4c#	.	.
2D	.	4d	2f	.
.	.	8c#	.	.
.	.	8B	.	.
1D	[1d	1A	1f	1a_
=27	=27	=27	=27	=27
1A	2d]	1r	1e	0a]
.	4c#	.	.	.
.	4B	.	.	.
[1A	1c#	2r	2.e	.
.	.	2e	.	.
.	.	.	4d	.
=28	=28	=28	=28	=28
2A]	2r	2A	4e	0r
.	.	.	4f	.
4G	2d	2B	2.g	.
4F	.	.	.	.
2E	2G	2c	.	.
.	.	.	4e	.
2D	2A	[2d	2f	.
=29	=29	=29	=29	=29
1G	2B	2d]	1.g	0r
.	2c	2e	.	.
1G	1d	4B	.	.
.	.	4c	.	.
.	.	[2d	2f	.
=30	=30	=30	=30	=30
2.A	2r	2d]	1e	1r
.	1A	2c#	.	.
4G	.	.	.	.
2F	.	1d	1d	2r
[2G	[2B-	.	.	[2d
=31	=31	=31	=31	=31
2G]	2B-]	2r	1r	2d]
4F#	4A	2.D	.	2d
4E	4G	.	.	.
2F#	2A	.	2r	1d
.	.	4D	.	.
2G	2B-	2G	[2d	.
=32	=32	=32	=32	=32
1D	2A	2F	4d]	1a
.	.	.	4d	.
.	1d	2D	2f	.
1r	.	2.A	2e	[1a
.	2c	.	4A	.
.	.	4G	4B	.
=33	=33	=33	=33	=33
0r	2A	2F	4c	2a]
.	.	.	4d	.
.	1c	4E	4e	4g
.	.	4D	4f	4f
.	.	2C	2.g	2e
.	2B	2G	.	2d
.	.	.	4f	.
=34	=34	=34	=34	=34
0r	2.c	2C	1e	1g
.	.	1c	.	.
.	4d	.	.	.
.	2e	.	2c	1g
.	[2d	2B	2d	.
=35	=35	=35	=35	=35
1.AA	2d]	0A	2e	1a
.	4c	.	1e	.
.	4B	.	.	.
.	2c	.	.	2r
2AA	4A	.	2c	[2a
.	4B	.	.	.
=36	=36	=36	=36	=36
1AA	4c	1r	1e	2a]
.	4d	.	.	.
.	4e	.	.	2a
.	4c	.	.	.
1D	2d	2r	[1f	1a
.	[2A	[2D	.	.
=37	=37	=37	=37	=37
0BB-	2A]	2D]	1f]	1dd
.	4G	2D	.	.
.	4F	.	.	.
.	2G	1D	1d	[1dd
.	[2F	.	.	.
=38	=38	=38	=38	=38
0AA	2F]	1A	2r	2dd]
.	4E	.	1e	4cc
.	4D	.	.	4b
.	[1E	[1A	.	2cc
.	.	.	2e	[2c
=39	=39	=39	=39	=39
1.C	1E]	2A]	1e	4c]
.	.	.	.	4d
.	.	4G	.	4e
.	.	4F	.	4f
.	2r	2E	2c	4g
.	.	.	.	4a
2BB	2G	2D	2d	2b
=40	=40	=40	=40	=40
1C	2E	1G	2e	2g
.	2E	.	2c	1cc
1GG	[1D	1G	2d	.
.	.	.	[2g	2b
=41	=41	=41	=41	=41
0D	2D]	[0A	2g]	[0a
.	2D	.	2.f	.
.	1F	.	.	.
.	.	.	4e	.
.	.	.	[2d	.
=42	=42	=42	=42	=42
0AA	0E	0A]	2d]	1a]
.	.	.	4c#	.
.	.	.	4B	.
.	.	.	2c#	1e
.	.	.	2c#	.
=43	=43	=43	=43	=43
[0D	[0D	[0A	[0d	[0f#
=44	=44	=44	=44	=44
0D]	0D]	0A]	0d]	0f#]
*	*	*	*	*-
!! Pleni
*Itenor	*Itenor	*Icalto	*Icant
!Tenor 2	!Tenor 1	!Altus	!Cantus
*clefGv2	*clefGv2	*clefG2	*clefG2
*k[]	*k[]	*k[]	*k[]
*D:dor	*D:dor	*D:dor	*D:dor
*M4/2	*M4/2	*M4/2	*M4/2
=45	=45	=45	=45
0r	1r	0r	0d
.	2r	.	.
.	[2d	.	.
=46	=46	=46	=46
0r	2d]	0r	1e
.	1c	.	.
.	.	.	1d
.	4B	.	.
.	4A	.	.
=47	=47	=47	=47
2r	2B	0r	1d
1d	2B	.	.
.	1e	.	1g
[2c	.	.	.
=48	=48	=48	=48
2c]	1d	0r	[0g
4B	.	.	.
4A	.	.	.
2B	1G	.	.
2B	.	.	.
=49	=49	=49	=49
1e	0r	2r	1g]
.	.	1g	.
1d	.	.	[1a
.	.	[2f	.
=50	=50	=50	=50
1D	2r	2f]	0a]
.	2d	4e	.
.	.	4d	.
1A	2d	2e	.
.	2c#	2e	.
=51	=51	=51	=51
2D	1d	1f	0a
1d	.	.	.
.	1A	1e	.
[2c	.	.	.
=52	=52	=52	=52
2c]	1r	1d	0r
2B	.	.	.
4A	2r	1c	.
4B	.	.	.
4c	2A	.	.
4A	.	.	.
=53	=53	=53	=53
4B	2G	1d	0r
4c	.	.	.
1d	2F	.	.
.	1E	1e	.
2c#	.	.	.
=54	=54	=54	=54
1d	2D	1.f	1r
.	1d	.	.
1A	.	.	1a
.	[2c	4e	.
.	.	4d	.
=55	=55	=55	=55
0r	2c]	4e	1g
.	.	4f	.
.	2B	1g	.
.	1A	.	1a
.	.	2f#	.
=56	=56	=56	=56
2r	4G	1g	1b
.	4A	.	.
2G	4B	.	.
.	4G	.	.
2F	2A	2r	[1cc
2E	2e	2g	.
=57	=57	=57	=57
1A	2.c	2f	1cc]
.	.	2e	.
.	4d	.	.
1G	2e	2.g	1b
.	[2d	.	.
.	.	4f	.
=58	=58	=58	=58
1A	2d]	1e	1a
.	2c#	.	.
2r	2d	1f#	1r
[2d	2D	.	.
=59	=59	=59	=59
2d]	1E	2r	0r
2c	.	1g	.
2B-	1D	.	.
2A	.	2f	.
=60	=60	=60	=60
2.G	2r	2e	0r
.	1d	2d	.
4G	.	.	.
1A	.	2f	.
.	2c	2e	.
=61	=61	=61	=61
1D	2B-	2.d	0r
.	2.A	.	.
.	.	4c	.
1E	.	1B	.
.	4G	.	.
.	2G	.	.
=62	=62	=62	=62
2F	1A	1A	1r
2.D	.	.	.
.	2r	[1f	1dd
4E	.	.	.
4F	4D	.	.
4G	4E	.	.
=63	=63	=63	=63
4A	4F	2f]	1cc
4B	4G	.	.
4c	2A	2e	.
4d	.	.	.
2e	1G	1g	1b-
[2d	.	.	.
=64	=64	=64	=64
2d]	1A	2f	1a
1c	.	1e	.
.	1r	.	1g
4B	.	4d	.
4A	.	4c	.
=65	=65	=65	=65
1B	2r	1d	1g
.	1d	.	.
2A	.	1e	1a
2A	2c	.	.
=66	=66	=66	=66
2G	2B-	2r	1d
2F	2A	1d	.
2.E	2.G	.	1e
.	.	2c#	.
4E	4G	.	.
=67	=67	=67	=67
1D	2A	2.d	0f
.	2.D	.	.
.	.	8c	.
.	.	8B	.
2r	.	1A	.
.	4E	.	.
[2d	4F	.	.
.	4G	.	.
=68	=68	=68	=68
2d]	0A	1r	0e
4c#	.	.	.
4B	.	.	.
2c#	.	2r	.
2c#	.	[2a	.
=69	=69	=69	=69
2.d	1D	4a]	[0d
.	.	4g	.
.	.	4f	.
4c	.	4e	.
4B-	1G	4d	.
4A	.	4c	.
4G	.	4B-	.
4A	.	4A	.
=70	=70	=70	=70
2B-	2G	2G	0d]
2.A	2F#	2A	.
.	1G	1B-	.
4G	.	.	.
[2G	.	.	.
=71	=71	=71	=71
2G]	[0D	[0A	[0d
4F#	.	.	.
4E	.	.	.
[1F#	.	.	.
=72	=72	=72	=72
0F#]	0D]	0A]	0d]
*-	*-	*-	*-
!! Hosanna
**kern	**kern	**kern	**kern	**kern
*Ibass	*Itenor	*Itenor	*Icalto	*Icant
!Bassus	!Tenor 2	!Tenor 1	!Altus	!Cantus
*clefF4	*clefGv2	*clefGv2	*clefG2	*clefG2
*k[]	*k[]	*k[]	*k[]	*k[]
*D:dor	*D:dor	*D:dor	*D:dor	*D:dor
*M4/2	*M4/2	*M4/2	*M4/2	*M4/2
=73	=73	=73	=73	=73
0r	0A	2.D	0r	0r
.	.	4E	.	.
.	.	4F#	.	.
.	.	4G	.	.
.	.	[2A	.	.
=74	=74	=74	=74	=74
0r	1B	2A]	0r	0r
.	.	1G	.	.
.	1A	.	.	.
.	.	4F#	.	.
.	.	4E	.	.
=75	=75	=75	=75	=75
0D	1A	2.F#	0r	2.d
.	.	4G	.	4e
.	1d	2A	.	4f#
.	.	.	.	4g
.	.	2F#	.	[2a
=76	=76	=76	=76	=76
1E	1c	1G	0r	2a]
.	.	.	.	1g
1D	1B	[1d	.	.
.	.	.	.	4f#
.	.	.	.	4e
=77	=77	=77	=77	=77
1D	1A	1d]	1r	1f#
1G	1B	1r	2.d	1g
.	.	.	4e	.
=78	=78	=78	=78	=78
1F	1.c	2.A	4f	1a
.	.	.	4g	.
.	.	.	1a	.
.	.	4B	.	.
1E	.	4c	.	1r
.	.	4d	.	.
.	[2B	4e	[2g	.
.	.	4B	.	.
=79	=79	=79	=79	=79
1D	2B]	1d	2g]	0r
.	1A	.	2f	.
1E	.	2c	1e	.
.	2G#	2B	.	.
=80	=80	=80	=80	=80
1F	1A	2A	2c	2r
.	.	2F	2.d	2a
1E	1r	1G	.	1g
.	.	.	8c#	.
.	.	.	8B	.
.	.	.	2c#	.
=81	=81	=81	=81	=81
1D	2r	0A	1d	2f
.	2A	.	.	4d
.	.	.	.	4e
1D	2.F	.	2r	4f
.	.	.	.	4g
.	.	.	4A	[2a
.	4G	.	4B	.
=82	=82	=82	=82	=82
1C	4A	1r	4c	4a]
.	4B	.	4d	4g
.	2c	.	1e	1g
1D	2A	2r	.	.
.	2D	2A	[2d	2f#
=83	=83	=83	=83	=83
1E	2r	1G	2d]	1g
.	2G	.	2c#	.
[1D	2A	2F	[1d	2r
.	2F	4D	.	2a
.	.	4E	.	.
=84	=84	=84	=84	=84
1D]	2.A	4F	2d]	2a
.	.	4G	.	.
.	.	1A	2f	2d
.	4B	.	.	.
2AA	4c	.	4e	2e
.	4d	.	4d	.
2C	[2e	2G	4c	2e
.	.	.	4B	.
=85	=85	=85	=85	=85
1D	2e]	2F	1A	2.f
.	1d	4E	.	.
.	.	4D	.	4g
1AA	.	1E	1e	1a
.	2c#	.	.	.
=86	=86	=86	=86	=86
[0D	[0d	[0D	[0f#	[0a
=87	=87	=87	=87	=87
0D]	0d]	0D]	0f#]	0a]
=88	=88	=88	=88	=88
0r	0r	0A	0r	1r
.	.	.	.	[1a
=89	=89	=89	=89	=89
0r	1r	0B	0d	2a]
.	.	.	.	4g#
.	.	.	.	4f#
.	[1d	.	.	2g#
.	.	.	.	2g#
=90	=90	=90	=90	=90
0r	2d]	0A	0e	0a
.	4c#	.	.	.
.	4B	.	.	.
.	2c#	.	.	.
.	2c#	.	.	.
=91	=91	=91	=91	=91
0D	2.d	1A	0d	0f#
.	4c	.	.	.
.	2B-	[1d	.	.
.	2A	.	.	.
=92	=92	=92	=92	=92
0E	0G	2d]	1.g	0r
.	.	4c#	.	.
.	.	4B	.	.
.	.	1c#	.	.
.	.	.	4f	.
.	.	.	4e	.
=93	=93	=93	=93	=93
0D	1A	[0d	2.f	0r
.	.	.	4e	.
.	2B-	.	2d	.
.	[2A	.	2c	.
=94	=94	=94	=94	=94
0D	2A]	0d]	2B-	2r
.	1G	.	4A	2d
.	.	.	4G	.
.	.	.	2A	1a
.	2F	.	[2d	.
=95	=95	=95	=95	=95
0G	4G	2r	2d]	2b
.	4A	.	.	.
.	4B	2B	2d	4g
.	4c	.	.	4a
.	2d	4G	[1g	4b
.	.	4A	.	4cc
.	2G	4B	.	[2dd
.	.	4c	.	.
=96	=96	=96	=96	=96
0G	2B	2d	0g]	2dd]
.	2c	2e	.	1cc
.	1d	2d	.	.
.	.	2G	.	2b
=97	=97	=97	=97	=97
0A	0c	1r	0e	2cc
.	.	.	.	2.a
.	.	2r	.	.
.	.	.	.	4g
.	.	[2A	.	4a
.	.	.	.	4b
=98	=98	=98	=98	=98
0r	0r	4A]	2.e	2.cc
.	.	4G	.	.
.	.	4A	.	.
.	.	4B	4d	8b
.	.	.	.	8a
.	.	2c	4e	2.g
.	.	.	4f	.
.	.	4B	[2g	.
.	.	4A	.	4a
=99	=99	=99	=99	=99
0r	2r	2G	4g]	2b
.	.	.	4f	.
.	2.A	2A	1e	2cc
.	.	1F	.	1a
.	4G	.	.	.
.	4A	.	2d	.
.	4B	.	.	.
=100	=100	=100	=100	=100
0r	2c	2.E	1e	1.g
.	1B	.	.	.
.	.	4F	.	.
.	.	2G	2.d	.
.	[2A	2D	.	2f
.	.	.	4c	.
=101	=101	=101	=101	=101
1r	2A]	1E	1B	2.e
.	2G#	.	.	.
.	.	.	.	4d
2r	1A	[1A	2A	2c
[2D	.	.	[2f	2d
=102	=102	=102	=102	=102
4D]	2r	1A]	4f]	1a
4C	.	.	4e	.
4D	1A	.	2d	.
4E	.	.	.	.
2F	.	1r	1c	1r
[2E	4G	.	.	.
.	4F	.	.	.
=103	=103	=103	=103	=103
2E]	2G	0r	0r	0r
1D	2F	.	.	.
.	1E	.	.	.
2C#	.	.	.	.
=104	=104	=104	=104	=104
1D	4D	2r	2r	0r
.	4E	.	.	.
.	4F	2d	2f	.
.	4G	.	.	.
1r	1A	2.c	2.e	.
.	.	4B	4d	.
=105	=105	=105	=105	=105
1r	1r	2A	2c	0r
.	.	2G#	2B	.
2r	2r	2A	1A	.
2F	2d	2A	.	.
=106	=106	=106	=106	=106
2.E	2.c	2.G	0r	1r
4D	4B	4F	.	.
2C	2A	2E	.	2r
2BB	2G#	2D	.	2dd
=107	=107	=107	=107	=107
1AA	2A	1E	2r	2.cc
.	2c	.	2e	.
.	.	.	.	4b
1r	2d	2r	2f	2a
.	2B	2E	2e	2g#
=108	=108	=108	=108	=108
0r	1A	2F	2c	1a
.	.	2F	2.d	.
.	2B	1G	.	1d
.	.	.	4c	.
.	[2d	.	4B	.
.	.	.	4A	.
=109	=109	=109	=109	=109
0r	2d]	2.E	1G	1e
.	2c#	.	.	.
.	.	4E	.	.
.	[1d	[1D	2A	[1f
.	.	.	2B-	.
=110	=110	=110	=110	=110
0r	2d]	1D]	2A	2f]
.	4c	.	1d	4e
.	4B	.	.	4d
.	1A	1r	.	2e
.	.	.	2c#	2e
=111	=111	=111	=111	=111
2r	2r	2r	1d	1d
2G	1d	2B	.	.
2.F	.	2.A	1r	1r
.	2c	.	.	.
4E	.	4G	.	.
=112	=112	=112	=112	=112
2D	2B	2F	2r	0r
2C	2c	2E	2g	.
1D	2.A	2D	2.f	.
.	.	2F	.	.
.	8G	.	4e	.
.	8A	.	.	.
=113	=113	=113	=113	=113
2GG	2B-	2G	2d	1r
2AA	1A	2E	2c#	.
2.BB-	.	1D	2.d	2r
.	2G	.	.	2dd
4BB-	.	.	4e	.
=114	=114	=114	=114	=114
1AA	1A	2r	2f	2.cc
.	.	2A	1e	.
.	.	.	.	4b
1r	2r	2c	.	2a
.	2d	2B	2d	2g#
=115	=115	=115	=115	=115
2r	2.c	2.A	2e	1a
2F	.	.	2A	.
.	4B	4G	.	.
2F	2A	4F	2A	2d
.	.	4D	.	.
2E	2G	2G	2c	2e
=116	=116	=116	=116	=116
2D	1A	2.F	1d	2.f
1D	.	.	.	.
.	.	4G	.	8e
.	.	.	.	8d
.	2D	[1A	1r	2f
2C#	2E	.	.	[2e
=117	=117	=117	=117	=117
1D	1F	1A]	1d	4e]
.	.	.	.	4d
.	.	.	.	1d
1AA	2.E	1A	2.e	.
.	.	.	.	2c#
.	4E	.	4e	.
=118	=118	=118	=118	=118
[0D	[0D	[0A	[0f#	[0d
=119	=119	=119	=119	=119
0D]	0D]	0A]	0f#]	0d]
=120	=120	=120	=120	=120
0r	0r	0r	0r	1a
.	.	.	.	1b
=121	=121	=121	=121	=121
0r	0r	0r	1d	2a
.	.	.	.	1dd
.	.	.	1e	.
.	.	.	.	2cc
=122	=122	=122	=122	=122
1D	0r	0r	2d	2b
.	.	.	2d	2.a
1E	.	.	2c	.
.	.	.	.	4g
.	.	.	[2B	[2g
=123	=123	=123	=123	=123
1D	0r	1r	2B]	2g]
.	.	.	2A	4f
.	.	.	.	4e
1D	.	1A	[1d	4f
.	.	.	.	4g
.	.	.	.	4a
.	.	.	.	4f
=124	=124	=124	=124	=124
1G	0r	1B	2d]	2g
.	.	.	2B	2d
2.F	.	1A	4c	2.f
.	.	.	4B	.
.	.	.	4A	.
4E	.	.	4G	4g
=125	=125	=125	=125	=125
2D	1r	1A	4F	1a
.	.	.	4G	.
2C	.	.	1A	.
1BB	1D	1d	.	2r
.	.	.	2G#	2b
=126	=126	=126	=126	=126
1AA	1E	1c	1A	2cc
.	.	.	.	1a
1r	1D	1B	2r	.
.	.	.	2d	[2g
=127	=127	=127	=127	=127
1r	1D	1A	1.d	2g]
.	.	.	.	2f#
1GG	1G	1B	.	1g
.	.	.	2B	.
=128	=128	=128	=128	=128
1AA	1F	0c	4A	1r
.	.	.	4B	.
.	.	.	4c	.
.	.	.	4d	.
1C	1E	.	2e	2.g
.	.	.	2c	.
.	.	.	.	4a
=129	=129	=129	=129	=129
0GG	1D	0B	1d	4b
.	.	.	.	4cc
.	.	.	.	2dd
.	1E	.	2G	2b
.	.	.	2g	2g
=130	=130	=130	=130	=130
0D	0F	0A	4f	2a
.	.	.	4d	.
.	.	.	2.f	2d
.	.	.	.	2.f
.	.	.	4e	.
.	.	.	[2d	.
.	.	.	.	4g
=131	=131	=131	=131	=131
0AA	0E	0A	2d]	0a
.	.	.	4c#	.
.	.	.	4B	.
.	.	.	1c#	.
=132	=132	=132	=132	=132
2.BB-	0D	2r	1d	1f
.	.	1d	.	.
4AA	.	.	.	.
[1GG	.	.	1B-	2r
.	.	2G	.	[2dd
=133	=133	=133	=133	=133
0GG]	[0D	2.B-	1G	2dd]
.	.	.	.	2g
.	.	4A	.	.
.	.	1G	1g	1b-
=134	=134	=134	=134	=134
[0D	1D_	[0A	[0f#	[0a
.	1D_	.	.	.
=135	=135	=135	=135	=135
0D]	0D]	0A]	0f#]	0a]
==	==	==	==	==
*-	*-	*-	*-	*-
!!!CDT: 1525/^1526/-1594/2/2
!!!OCY: Italia
!!!AGN: Mass (Paraphrase)
!!!AST: renaissance, vocal
!!!ASW: Gregorian Mass
!!!PWK: Masses, Book Mantuan II
!!!RNB: Cadence finals: A
!!!YOR: Le Opere Complete, v. 19, p. 1
!!!YOO: Rome, Italy: Fratelli Scalera
!!!END: 1992//
!!!EED: John Miller
!!!YEC: Copyright 2000, John Miller
!!!YEN: United States of America
!!!YEM: Rights to all derivative electronic formats reserved.
!!!YEM: Refer to licensing agreement for further details.
!!!YEM: This file must be accompanied by the licensing agreement.
!!!YEM: A copy of the licensing agreement may be found at http://www.music-cog.ohio-state.edu/HumdrumDatabases/Palestrina/license.txt
!!!EMD: converted to Humdrum by Bret Aarden
